client/img/icon/social/facebook.svg

<?xml version="1.0" encoding="UTF-8"?>
<svg width="32px" height="32px" viewBox="0 0 32 32" version="1.1" xmlns="http://www.w3.org/2000/svg" xmlns:xlink="http://www.w3.org/1999/xlink">
    <!-- Generator: sketchtool 47 (45396) - http://www.bohemiancoding.com/sketch -->
    <title>icon/social/facebook</title>
    <desc>Created with sketchtool.</desc>
    <defs>
        <path d="M14.25,13 L12,13 L12,16 L14.25,16 L14.25,25 L18,25 L18,16 L20.7315,16 L21,13 L18,13 L18,11.74975 C18,11.0335 18.144,10.75 18.83625,10.75 L21,10.75 L21,7 L18.144,7 C15.447,7 14.25,8.18725 14.25,10.46125 L14.25,13 Z" id="path-1"></path>
    </defs>
    <g id="Symbols" stroke="none" stroke-width="1" fill="none" fill-rule="evenodd">
        <g id="icon/social/facebook">
            <mask id="mask-2" fill="white">
                <use xlink:href="#path-1"></use>
            </mask>
            <use id="facebook" fill="#000000" fill-rule="nonzero" xlink:href="#path-1"></use>
            <g id="color/solid/primary" mask="url(#mask-2)" fill="#4A90E2">
                <g transform="translate(-22.000000, -27.000000)" id="color">
                    <rect x="0" y="0" width="80" height="80"></rect>
                </g>
            </g>
        </g>
    </g>
</svg>

<?xml version="1.0" encoding="utf-8"?>
<!-- Generator: Adobe Illustrator 23.0.0, SVG Export Plug-In . SVG Version: 6.00 Build 0)  -->
<svg version="1.1" id="Layer_1" xmlns="http://www.w3.org/2000/svg" xmlns:xlink="http://www.w3.org/1999/xlink" x="0px" y="0px"
	 viewBox="0 0 32 32" style="enable-background:new 0 0 32 32;" xml:space="preserve">
<path d="M14.2,13H12v3h2.2v9H18v-9h2.7l0.3-3h-3v-1.3c0-0.7,0.1-1,0.8-1H21V7h-2.9c-2.7,0-3.9,1.2-3.9,3.5V13z"/>
</svg>
